rospo-icon-theme-classic-common/64x64/apps/xcas.svg

<svg height="64" width="64" xmlns="http://www.w3.org/2000/svg"><rect height="57" opacity=".2" rx="28.5" transform="matrix(0 -1 -1 0 0 0)" width="57" x="-61" y="-61"/><rect fill="#936ff6" height="57" rx="28.5" transform="matrix(0 -1 -1 0 0 0)" width="57" x="-60" y="-61"/><path d="m32.5 11a3.5 3.5 0 0 0 -3.5 3.5 3.5 3.5 0 0 0 2 3.158203v2.039063l-3.667969-2.445313a1.50015 1.50015 0 1 0 -1.664062 2.496094l5.332031 3.554687v6.59961l-5.714844-3.300782-.412109-6.394531a1.500189 1.500189 0 1 0 -2.994141.19336l.283203 4.398437-1.765625-1.019531a3.5 3.5 0 0 0 -1.734375-3.310547 3.5 3.5 0 0 0 -4.78125 1.28125 3.5 3.5 0 0 0 1.28125 4.78125 3.5 3.5 0 0 0 3.734375-.152344l1.765625 1.019532-3.951171 1.953124a1.5001892 1.5001892 0 1 0 1.330078 2.689454l5.74414-2.839844 5.712891 3.298828-5.703125 3.292969-5.744141-2.839844a1.5001887 1.5001887 0 1 0 -1.330078 2.689453l3.953125 1.953125-1.777344 1.025391a3.5 3.5 0 0 0 -3.734375-.152344 3.5 3.5 0 0 0 -1.28125 4.78125 3.5 3.5 0 0 0 4.78125 1.28125 3.5 3.5 0 0 0 1.734375-3.310547l1.777344-1.025391-.285156 4.398438a1.5001885 1.5001885 0 1 0 2.99414.193359l.41211-6.394531 5.705078-3.294922v6.587891l-5.332031 3.554687a1.50015 1.50015 0 1 0 1.664062 2.496094l3.667969-2.445312v2.050781a3.5 3.5 0 0 0 -2 3.158203 3.5 3.5 0 0 0 3.5 3.5 3.5 3.5 0 0 0 3.5-3.5 3.5 3.5 0 0 0 -2-3.158203v-2.050781l3.667969 2.445312a1.50015 1.50015 0 1 0 1.664062-2.496094l-5.332031-3.554687v-6.587891l5.705078 3.294922.41211 6.394531a1.5001885 1.5001885 0 1 0 2.99414-.193359l-.283203-4.398438 1.775391 1.025391a3.5 3.5 0 0 0 1.736328 3.310547 3.5 3.5 0 0 0 4.779297-1.28125 3.5 3.5 0 0 0 -1.279297-4.78125 3.5 3.5 0 0 0 -3.736328.152344l-1.775391-1.025391 3.951172-1.953125a1.5001887 1.5001887 0 1 0 -1.330078-2.689453l-5.744141 2.839844-5.703125-3.292969 5.712891-3.298828 5.746094 2.839844a1.50015 1.50015 0 1 0 1.328124-2.689454l-3.951171-1.953124 1.765625-1.019532a3.5 3.5 0 0 0 3.736328.152344 3.5 3.5 0 0 0 1.279297-4.78125 3.5 3.5 0 0 0 -4.779297-1.28125 3.5 3.5 0 0 0 -1.736328 3.310547l-1.765625 1.019531.283203-4.398437a1.50015 1.50015 0 1 0 -2.992188-.19336l-.414062 6.394531-5.714844 3.300782v-6.59961l5.332031-3.554687a1.50015 1.50015 0 1 0 -1.664062-2.496094l-3.667969 2.445313v-2.039063a3.5 3.5 0 0 0 2-3.158203 3.5 3.5 0 0 0 -3.5-3.5z" fill-rule="evenodd" opacity=".2"/><path d="m32.5 10a3.5 3.5 0 0 0 -3.5 3.5 3.5 3.5 0 0 0 2 3.158203v2.039063l-3.667969-2.445313a1.50015 1.50015 0 1 0 -1.664062 2.496094l5.332031 3.554687v6.59961l-5.714844-3.300782-.412109-6.394531a1.50015 1.50015 0 1 0 -2.994141.19336l.283203 4.398437-1.765625-1.019531a3.5 3.5 0 0 0 -1.734375-3.310547 3.5 3.5 0 0 0 -4.78125 1.28125 3.5 3.5 0 0 0 1.28125 4.78125 3.5 3.5 0 0 0 3.734375-.152344l1.765625 1.019532-3.951171 1.953124a1.50015 1.50015 0 1 0 1.330078 2.689454l5.74414-2.839844 5.712891 3.298828-5.703125 3.292969-5.744141-2.839844a1.50015 1.50015 0 1 0 -1.330078 2.689453l3.953125 1.953125-1.777344 1.025391a3.5 3.5 0 0 0 -3.734375-.152344 3.5 3.5 0 0 0 -1.28125 4.78125 3.5 3.5 0 0 0 4.78125 1.28125 3.5 3.5 0 0 0 1.734375-3.310547l1.777344-1.025391-.285156 4.398438a1.50015 1.50015 0 1 0 2.99414.193359l.41211-6.394531 5.705078-3.294922v6.587891l-5.332031 3.554687a1.50015 1.50015 0 1 0 1.664062 2.496094l3.667969-2.445312v2.050781a3.5 3.5 0 0 0 -2 3.158203 3.5 3.5 0 0 0 3.5 3.5 3.5 3.5 0 0 0 3.5-3.5 3.5 3.5 0 0 0 -2-3.158203v-2.050781l3.667969 2.445312a1.50015 1.50015 0 1 0 1.664062-2.496094l-5.332031-3.554687v-6.587891l5.705078 3.294922.41211 6.394531a1.50015 1.50015 0 1 0 2.99414-.193359l-.283203-4.398438 1.775391 1.025391a3.5 3.5 0 0 0 1.736328 3.310547 3.5 3.5 0 0 0 4.779297-1.28125 3.5 3.5 0 0 0 -1.279297-4.78125 3.5 3.5 0 0 0 -3.736328.152344l-1.775391-1.025391 3.951172-1.953125a1.50015 1.50015 0 1 0 -1.330078-2.689453l-5.744141 2.839844-5.703125-3.292969 5.712891-3.298828 5.746094 2.839844a1.50015 1.50015 0 1 0 1.328124-2.689454l-3.951171-1.953124 1.765625-1.019532a3.5 3.5 0 0 0 3.736328.152344 3.5 3.5 0 0 0 1.279297-4.78125 3.5 3.5 0 0 0 -4.779297-1.28125 3.5 3.5 0 0 0 -1.736328 3.310547l-1.765625 1.019531.283203-4.398437a1.50015 1.50015 0 1 0 -2.992188-.19336l-.414062 6.394531-5.714844 3.300782v-6.59961l5.332031-3.554687a1.50015 1.50015 0 1 0 -1.664062-2.496094l-3.667969 2.445313v-2.039063a3.5 3.5 0 0 0 2-3.158203 3.5 3.5 0 0 0 -3.5-3.5z" fill="#fff" fill-rule="evenodd"/><path d="m32.5 3c-15.789 0-28.5 12.711-28.5 28.5 0 .167737.0088611.332969.0117188.5.2661305-15.555482 12.8670182-28 28.4882812-28s28.222151 12.444518 28.488281 28c .002858-.167031.011719-.332263.011719-.5 0-15.789-12.711-28.5-28.5-28.5z" fill="#fff" opacity=".2"/></svg>

<svg xmlns="http://www.w3.org/2000/svg" width="64" height="64" version="1">
 <rect style="opacity:0.2" width="57" height="57" x="-61" y="-61" rx="28.5" ry="28.5" transform="matrix(0,-1,-1,0,0,0)"/>
 <rect width="57" height="57" x="-60" y="-61" rx="28.5" ry="28.5" transform="matrix(0,-1,-1,0,0,0)" style="fill:#936ff6"/>
 <path d="m 32.5,11 a 3.5,3.5 0 0 0 -3.5,3.5 3.5,3.5 0 0 0 2,3.158203 l 0,2.039063 -3.667969,-2.445313 a 1.50015,1.50015 0 1 0 -1.664062,2.496094 L 31,23.302734 l 0,6.59961 -5.714844,-3.300782 -0.412109,-6.394531 a 1.500189,1.500189 0 1 0 -2.994141,0.19336 l 0.283203,4.398437 -1.765625,-1.019531 a 3.5,3.5 0 0 0 -1.734375,-3.310547 3.5,3.5 0 0 0 -4.78125,1.28125 3.5,3.5 0 0 0 1.28125,4.78125 3.5,3.5 0 0 0 3.734375,-0.152344 l 1.765625,1.019532 -3.951171,1.953124 a 1.5001892,1.5001892 0 1 0 1.330078,2.689454 l 5.74414,-2.839844 5.712891,3.298828 -5.703125,3.292969 -5.744141,-2.839844 a 1.5001887,1.5001887 0 1 0 -1.330078,2.689453 l 3.953125,1.953125 -1.777344,1.025391 a 3.5,3.5 0 0 0 -3.734375,-0.152344 3.5,3.5 0 0 0 -1.28125,4.78125 3.5,3.5 0 0 0 4.78125,1.28125 3.5,3.5 0 0 0 1.734375,-3.310547 l 1.777344,-1.025391 -0.285156,4.398438 a 1.5001885,1.5001885 0 1 0 2.99414,0.193359 L 25.294922,38.392578 31,35.097656 l 0,6.587891 -5.332031,3.554687 a 1.50015,1.50015 0 1 0 1.664062,2.496094 L 31,45.291016 31,47.341797 A 3.5,3.5 0 0 0 29,50.5 3.5,3.5 0 0 0 32.5,54 3.5,3.5 0 0 0 36,50.5 3.5,3.5 0 0 0 34,47.341797 l 0,-2.050781 3.667969,2.445312 a 1.50015,1.50015 0 1 0 1.664062,-2.496094 L 34,41.685547 l 0,-6.587891 5.705078,3.294922 0.41211,6.394531 a 1.5001885,1.5001885 0 1 0 2.99414,-0.193359 l -0.283203,-4.398438 1.775391,1.025391 a 3.5,3.5 0 0 0 1.736328,3.310547 3.5,3.5 0 0 0 4.779297,-1.28125 3.5,3.5 0 0 0 -1.279297,-4.78125 3.5,3.5 0 0 0 -3.736328,0.152344 l -1.775391,-1.025391 3.951172,-1.953125 A 1.5001887,1.5001887 0 1 0 46.949219,32.953125 L 41.205078,35.792969 35.501953,32.5 l 5.712891,-3.298828 5.746094,2.839844 a 1.50015,1.50015 0 1 0 1.328124,-2.689454 l -3.951171,-1.953124 1.765625,-1.019532 a 3.5,3.5 0 0 0 3.736328,0.152344 3.5,3.5 0 0 0 1.279297,-4.78125 3.5,3.5 0 0 0 -4.779297,-1.28125 3.5,3.5 0 0 0 -1.736328,3.310547 l -1.765625,1.019531 0.283203,-4.398437 a 1.50015,1.50015 0 1 0 -2.992188,-0.19336 L 39.714844,26.601562 34,29.902344 l 0,-6.59961 5.332031,-3.554687 A 1.50015,1.50015 0 1 0 37.667969,17.251953 L 34,19.697266 34,17.658203 A 3.5,3.5 0 0 0 36,14.5 3.5,3.5 0 0 0 32.5,11 Z" style="opacity:0.2;fill-rule:evenodd"/>
 <path style="fill:#ffffff;fill-rule:evenodd" d="M 32.5 10 A 3.5 3.5 0 0 0 29 13.5 A 3.5 3.5 0 0 0 31 16.658203 L 31 18.697266 L 27.332031 16.251953 A 1.50015 1.50015 0 1 0 25.667969 18.748047 L 31 22.302734 L 31 28.902344 L 25.285156 25.601562 L 24.873047 19.207031 A 1.50015 1.50015 0 1 0 21.878906 19.400391 L 22.162109 23.798828 L 20.396484 22.779297 A 3.5 3.5 0 0 0 18.662109 19.46875 A 3.5 3.5 0 0 0 13.880859 20.75 A 3.5 3.5 0 0 0 15.162109 25.53125 A 3.5 3.5 0 0 0 18.896484 25.378906 L 20.662109 26.398438 L 16.710938 28.351562 A 1.50015 1.50015 0 1 0 18.041016 31.041016 L 23.785156 28.201172 L 29.498047 31.5 L 23.794922 34.792969 L 18.050781 31.953125 A 1.50015 1.50015 0 1 0 16.720703 34.642578 L 20.673828 36.595703 L 18.896484 37.621094 A 3.5 3.5 0 0 0 15.162109 37.46875 A 3.5 3.5 0 0 0 13.880859 42.25 A 3.5 3.5 0 0 0 18.662109 43.53125 A 3.5 3.5 0 0 0 20.396484 40.220703 L 22.173828 39.195312 L 21.888672 43.59375 A 1.50015 1.50015 0 1 0 24.882812 43.787109 L 25.294922 37.392578 L 31 34.097656 L 31 40.685547 L 25.667969 44.240234 A 1.50015 1.50015 0 1 0 27.332031 46.736328 L 31 44.291016 L 31 46.341797 A 3.5 3.5 0 0 0 29 49.5 A 3.5 3.5 0 0 0 32.5 53 A 3.5 3.5 0 0 0 36 49.5 A 3.5 3.5 0 0 0 34 46.341797 L 34 44.291016 L 37.667969 46.736328 A 1.50015 1.50015 0 1 0 39.332031 44.240234 L 34 40.685547 L 34 34.097656 L 39.705078 37.392578 L 40.117188 43.787109 A 1.50015 1.50015 0 1 0 43.111328 43.59375 L 42.828125 39.195312 L 44.603516 40.220703 A 3.5 3.5 0 0 0 46.339844 43.53125 A 3.5 3.5 0 0 0 51.119141 42.25 A 3.5 3.5 0 0 0 49.839844 37.46875 A 3.5 3.5 0 0 0 46.103516 37.621094 L 44.328125 36.595703 L 48.279297 34.642578 A 1.50015 1.50015 0 1 0 46.949219 31.953125 L 41.205078 34.792969 L 35.501953 31.5 L 41.214844 28.201172 L 46.960938 31.041016 A 1.50015 1.50015 0 1 0 48.289062 28.351562 L 44.337891 26.398438 L 46.103516 25.378906 A 3.5 3.5 0 0 0 49.839844 25.53125 A 3.5 3.5 0 0 0 51.119141 20.75 A 3.5 3.5 0 0 0 46.339844 19.46875 A 3.5 3.5 0 0 0 44.603516 22.779297 L 42.837891 23.798828 L 43.121094 19.400391 A 1.50015 1.50015 0 1 0 40.128906 19.207031 L 39.714844 25.601562 L 34 28.902344 L 34 22.302734 L 39.332031 18.748047 A 1.50015 1.50015 0 1 0 37.667969 16.251953 L 34 18.697266 L 34 16.658203 A 3.5 3.5 0 0 0 36 13.5 A 3.5 3.5 0 0 0 32.5 10 z"/>
 <path style="fill:#ffffff;opacity:0.2" d="M 32.5 3 C 16.711 3 4 15.711 4 31.5 C 4 31.667737 4.0088611 31.832969 4.0117188 32 C 4.2778493 16.444518 16.878737 4 32.5 4 C 48.121263 4 60.722151 16.444518 60.988281 32 C 60.991139 31.832969 61 31.667737 61 31.5 C 61 15.711 48.289 3 32.5 3 z"/>
</svg>
